static/img/kroki/f95d57bb54f3c608a47ff09153f8c22c.svg

<?xml version="1.0" encoding="us-ascii" standalone="no"?><svg xmlns="http://www.w3.org/2000/svg" xmlns:xlink="http://www.w3.org/1999/xlink" contentStyleType="text/css" height="252px" preserveAspectRatio="none" style="width:313px;height:252px;" version="1.1" viewBox="0 0 313 252" width="313px" zoomAndPan="magnify"><defs/><g><!--class aws_dynamo_db_table--><g id="elem_aws_dynamo_db_table"><rect codeLine="22" fill="#3D176E" height="39.7891" id="aws_dynamo_db_table" rx="2.5" ry="2.5" style="stroke:#000D19;stroke-width:0.5;" width="232" x="74.5" y="7"/><ellipse cx="89.5" cy="26.8945" fill="#ADD1B2" rx="11" ry="11" style="stroke:#181818;stroke-width:1.0;"/><path d="M92.4688,32.5352 Q91.8906,32.832 91.25,32.9727 Q90.6094,33.1289 89.9063,33.1289 Q87.4063,33.1289 86.0781,31.4883 Q84.7656,29.832 84.7656,26.707 Q84.7656,23.582 86.0781,21.9258 Q87.4063,20.2695 89.9063,20.2695 Q90.6094,20.2695 91.25,20.4258 Q91.9063,20.582 92.4688,20.8789 L92.4688,23.5977 Q91.8438,23.0195 91.25,22.7539 Q90.6563,22.4727 90.0313,22.4727 Q88.6875,22.4727 88,23.5508 Q87.3125,24.6133 87.3125,26.707 Q87.3125,28.8008 88,29.8789 Q88.6875,30.9414 90.0313,30.9414 Q90.6563,30.9414 91.25,30.6758 Q91.8438,30.3945 92.4688,29.8164 L92.4688,32.5352 Z " fill="#000000"/><text fill="#D9B8FF" font-family="Helvetica" font-size="17" lengthAdjust="spacing" textLength="190" x="108.5" y="32.7798">aws_dynamo_db_table</text></g><!--class aws_kinesis_stream--><g id="elem_aws_kinesis_stream"><rect codeLine="24" fill="#3D176E" height="39.7891" id="aws_kinesis_stream" rx="2.5" ry="2.5" style="stroke:#000D19;stroke-width:0.5;" width="209" x="7" y="106.79"/><ellipse cx="22" cy="126.6845" fill="#ADD1B2" rx="11" ry="11" style="stroke:#181818;stroke-width:1.0;"/><path d="M24.9688,132.3252 Q24.3906,132.622 23.75,132.7627 Q23.1094,132.9189 22.4063,132.9189 Q19.9063,132.9189 18.5781,131.2783 Q17.2656,129.622 17.2656,126.497 Q17.2656,123.372 18.5781,121.7158 Q19.9063,120.0595 22.4063,120.0595 Q23.1094,120.0595 23.75,120.2158 Q24.4063,120.372 24.9688,120.6689 L24.9688,123.3877 Q24.3438,122.8095 23.75,122.5439 Q23.1563,122.2627 22.5313,122.2627 Q21.1875,122.2627 20.5,123.3408 Q19.8125,124.4033 19.8125,126.497 Q19.8125,128.5908 20.5,129.6689 Q21.1875,130.7314 22.5313,130.7314 Q23.1563,130.7314 23.75,130.4658 Q24.3438,130.1845 24.9688,129.6064 L24.9688,132.3252 Z " fill="#000000"/><text fill="#D9B8FF" font-family="Helvetica" font-size="17" lengthAdjust="spacing" textLength="167" x="41" y="132.5698">aws_kinesis_stream</text></g><!--class aws_kms_key--><g id="elem_aws_kms_key"><rect codeLine="26" fill="#3D176E" height="39.7891" id="aws_kms_key" rx="2.5" ry="2.5" style="stroke:#000D19;stroke-width:0.5;" width="158" x="111.5" y="206.58"/><ellipse cx="126.5" cy="226.4745" fill="#ADD1B2" rx="11" ry="11" style="stroke:#181818;stroke-width:1.0;"/><path d="M129.4688,232.1152 Q128.8906,232.412 128.25,232.5527 Q127.6094,232.7089 126.9063,232.7089 Q124.4063,232.7089 123.0781,231.0683 Q121.7656,229.412 121.7656,226.287 Q121.7656,223.162 123.0781,221.5058 Q124.4063,219.8495 126.9063,219.8495 Q127.6094,219.8495 128.25,220.0058 Q128.9063,220.162 129.4688,220.4589 L129.4688,223.1777 Q128.8438,222.5995 128.25,222.3339 Q127.6563,222.0527 127.0313,222.0527 Q125.6875,222.0527 125,223.1308 Q124.3125,224.1933 124.3125,226.287 Q124.3125,228.3808 125,229.4589 Q125.6875,230.5214 127.0313,230.5214 Q127.6563,230.5214 128.25,230.2558 Q128.8438,229.9745 129.4688,229.3964 L129.4688,232.1152 Z " fill="#000000"/><text fill="#D9B8FF" font-family="Helvetica" font-size="17" lengthAdjust="spacing" textLength="116" x="145.5" y="232.3598">aws_kms_key</text></g><!--link aws_dynamo_db_table to aws_kinesis_stream--><g id="link_aws_dynamo_db_table_aws_kinesis_stream"><path codeLine="28" d="M174.89,47.22 C162.23,62.89 144.33,85.05 130.77,101.83 " fill="none" id="aws_dynamo_db_table-to-aws_kinesis_stream" style="stroke:#1A83AF;stroke-width:2.0;"/><polygon fill="#1A83AF" points="127.08,105.41,135.8499,100.9279,130.2243,101.5224,129.6298,95.8969,127.08,105.41" style="stroke:#1A83AF;stroke-width:2.0;"/></g><!--link aws_dynamo_db_table to aws_kms_key--><g id="link_aws_dynamo_db_table_aws_kms_key"><path codeLine="29" d="M204.59,47.17 C214.86,62.47 227.91,84.87 233.5,106.79 C237.87,123.93 237.87,129.44 233.5,146.58 C228.48,166.27 217.44,186.35 207.8,201.33 " fill="none" id="aws_dynamo_db_table-to-aws_kms_key" style="stroke:#1A83AF;stroke-width:2.0;"/><polygon fill="#1A83AF" points="204.59,205.2,212.8896,199.8974,207.347,201.0288,206.2156,195.4862,204.59,205.2" style="stroke:#1A83AF;stroke-width:2.0;"/></g><!--link aws_kinesis_stream to aws_kms_key--><g id="link_aws_kinesis_stream_aws_kms_key"><path codeLine="30" d="M127.11,147.01 C139.77,162.68 157.67,184.84 171.23,201.62 " fill="none" id="aws_kinesis_stream-to-aws_kms_key" style="stroke:#1A83AF;stroke-width:2.0;"/><polygon fill="#1A83AF" points="174.92,205.2,172.3702,195.6869,171.7757,201.3124,166.1501,200.7179,174.92,205.2" style="stroke:#1A83AF;stroke-width:2.0;"/></g><!--SRC=[ZP1FJm8n4CNlV8ecd4bOYIvSJ5OIeXTYn9inczdj51gsBPafRbRZTtS1DNN_W8TUvltwtflPQ8a2pSvNmg39a7Z0MsrtG614GkJAkIiSYQ5Ie2PnKrmuwoy2Ip0exh5uGwzpQ1BF6vrlBJABgq2wWtox9hUtycJl2IpN4beVKFC2c1FlIMTxZq4PESkcIZN9fkbm8gFu1bkO8udqZOp7OndDciZ5gBDx_n8h_OuY2e-sT1vRDLiHH-fiomCHb6mj-gFtTdm4ARLTY-jWzdJgH1Rfptor0UdA0wsWu326FH8wN-rmtjeAPrEfuaxueG_E3vSJK78gAml6fJ9BFMG5Ye_1Pw3MdiYQK_Q4jND3DFN3wZZjiXgz3ADaEaaMhwFR3hT__Zc533hQzB5V]--></g></svg>

<svg xmlns="http://www.w3.org/2000/svg" width="313" height="252" preserveAspectRatio="none" style="width:313px;height:252px"><rect width="232" height="39.789" x="74.5" y="7" fill="#3D176E" rx="2.5" ry="2.5" style="stroke:#000d19;stroke-width:.5"/><circle cx="89.5" cy="26.895" r="11" fill="#ADD1B2" style="stroke:#181818;stroke-width:1"/><path d="M92.469 32.535q-.578.297-1.219.438-.64.156-1.344.156-2.5 0-3.828-1.64-1.312-1.657-1.312-4.782t1.312-4.781q1.328-1.656 3.828-1.656.703 0 1.344.156.656.156 1.219.453v2.719q-.625-.578-1.219-.844-.594-.281-1.219-.281-1.344 0-2.031 1.078-.688 1.062-.688 3.156 0 2.094.688 3.172.688 1.062 2.031 1.062.625 0 1.219-.265.594-.281 1.219-.86v2.72Z"/><text x="108.5" y="32.78" fill="#D9B8FF" font-family="Helvetica" font-size="17" textLength="190">aws_dynamo_db_table</text><rect width="209" height="39.789" x="7" y="106.79" fill="#3D176E" rx="2.5" ry="2.5" style="stroke:#000d19;stroke-width:.5"/><circle cx="22" cy="126.684" r="11" fill="#ADD1B2" style="stroke:#181818;stroke-width:1"/><path d="M24.969 132.325q-.578.297-1.219.438-.64.156-1.344.156-2.5 0-3.828-1.64-1.312-1.657-1.312-4.782t1.312-4.781q1.328-1.656 3.828-1.656.703 0 1.344.156.656.156 1.219.453v2.719q-.625-.579-1.219-.844-.594-.281-1.219-.281-1.343 0-2.031 1.078-.688 1.062-.688 3.156 0 2.094.688 3.172.688 1.062 2.031 1.062.625 0 1.219-.265.594-.281 1.219-.86v2.72Z"/><text x="41" y="132.57" fill="#D9B8FF" font-family="Helvetica" font-size="17" textLength="167">aws_kinesis_stream</text><rect width="158" height="39.789" x="111.5" y="206.58" fill="#3D176E" rx="2.5" ry="2.5" style="stroke:#000d19;stroke-width:.5"/><circle cx="126.5" cy="226.475" r="11" fill="#ADD1B2" style="stroke:#181818;stroke-width:1"/><path d="M129.469 232.115q-.578.297-1.219.438-.64.156-1.344.156-2.5 0-3.828-1.64-1.312-1.657-1.312-4.782t1.312-4.781q1.328-1.656 3.828-1.656.703 0 1.344.156.656.156 1.219.453v2.719q-.625-.578-1.219-.844-.594-.281-1.219-.281-1.344 0-2.031 1.078-.688 1.062-.688 3.156 0 2.094.688 3.172.688 1.062 2.031 1.062.625 0 1.219-.265.594-.281 1.219-.86v2.72Z"/><text x="145.5" y="232.36" fill="#D9B8FF" font-family="Helvetica" font-size="17" textLength="116">aws_kms_key</text><path fill="none" d="M174.89 47.22c-12.66 15.67-30.56 37.83-44.12 54.61" style="stroke:#1a83af;stroke-width:2"/><path fill="#1A83AF" d="m127.08 105.41 8.77-4.482-5.626.594-.594-5.625-2.55 9.513z" style="stroke:#1a83af;stroke-width:2"/><path fill="none" d="M204.59 47.17c10.27 15.3 23.32 37.7 28.91 59.62 4.37 17.14 4.37 22.65 0 39.79-5.02 19.69-16.06 39.77-25.7 54.75" style="stroke:#1a83af;stroke-width:2"/><path fill="#1A83AF" d="m204.59 205.2 8.3-5.303-5.543 1.132-1.131-5.543-1.626 9.714z" style="stroke:#1a83af;stroke-width:2"/><path fill="none" d="M127.11 147.01c12.66 15.67 30.56 37.83 44.12 54.61" style="stroke:#1a83af;stroke-width:2"/><path fill="#1A83AF" d="m174.92 205.2-2.55-9.513-.594 5.625-5.626-.594 8.77 4.482z" style="stroke:#1a83af;stroke-width:2"/></svg>
